X:1
T:Io son Farfalla
T:Giovanni Maria Nanino
T:Source : Canzonette a la Romana a tre voce---Antwerp---P.Phalesius Jr---1607. Editor : André Vierendeels (02/02/17).
T:Notes : original clefs : G2, C1 C4
T:Io son Farfalla
T:©
T:©
C:Giovanni Maria Nanino
Z:©
%%score [ 1 2 3 ]
L:1/8
Q:1/4=89
M:4/4
K:C
V:1 treble nm="Soprano 1" snm="S 1"
V:2 treble nm="Soprano 2" snm="S 2"
V:3 treble-8 nm="Tenor" snm="T"
V:1
"^1)" z4 z2 e2 | g6 d2 | f6 e2 | e6 d2 | d2 c2 B4 |[M:2/4] A4 ::[M:4/4] e2 ee e2 f2 | gfed c2 d2 | %8
w: Io|son Far-|fal- la'e|voi dol-|ce ben mi-|o,|Se- te la chia- ra|lu- * * * * ce'à|
w: Io|l''El- li-|tro- pio|son e|voi'il mio So-|le,|al cui mo- to io|mi _ _ _ gi- ro|
 e2 f2 d4 | e2 g2 f2 d2 | edef gfed | cdec dcBA | G2 g2 fede | fgaf gfed | c2 d2 edef | %15
w: cui d'in- tor-|no, sem- pre gi-|ran- * * * * * * *||* do vo- * * *||la not- * * * *|
w: a tut- te'ho-|re, per vi- t'ha-|ver _ _ _ _ _ _ _|_ _ _ _ _ _ _ _|* dal vo- * * *||stro'al- mo splen- * * *|
 e2 dc B2 A2 | B4 !fermata!A4 :| %17
w: * * * * t'e'l|gior- no.|
w: |do- re.|
V:2
"^2)""^1)" c4 e4- | e2 B2 d4- | d2 c2 c4- | c2 B2 B2 A2 | ^G2 A4 G2 |[M:2/4] A4 :: %6
w: Io son|_ Far- fal-|* la'e voi|_ dol- ce ben|mi- * *|o,|
w: Io son|_ il fer-|* ro'e voi|_ mia ca- la-|mi- * *|ta,|
[M:4/4] c2 cc c2 d2 | e6 d2 | c2 c4 B2 | c2 G2 A2 B2 | cBcd edcB | ABcA B4 | B4 A4 | A4 G4 | %14
w: Se- te la chia- ra|lu- ce'à|cui d'in- tor-|no, sem- pre gi-|ran- * * * * * * *||do vo|la not-|
w: che''à si mi ti- ra'e|strin- ge'in|o- gni lo-|co, ne pos- so'al-|lon- * * * * * * *||tan- ar-|mi'o mol-|
 A4 c4- | c2 BA ^G2 A2- | A2 ^G2 !fermata!A4 :| %17
w: t'e'l gior-||* * no.|
w: t'o po-||* * co.|
V:3
"^3)""^1)""^4)" A4 c4- | c2 G2 _B4- | B2 A2 A4- | A2 G2 G2 F2 | E8 |[M:2/4] A4 :: %6
w: Io son|_ Far- fa-|* la'e voi|_ dol- ce ben|mi-|o,|
w: Vi- ci-|* ni'à voi|_ io ven-|* go trans- for-|ma-|to,|
[M:4/4] A2 AA A2 d2 | c6 _B2 | A2 F2 G4 | C2 E2 F2 G2 | C8 | C4 G4- | G4 D4- | D4 E4 | F4 C4- | %15
w: se- te la chai- ra|lu- ce'à|cui d'in- tor-|no, sem- pre gi-|ran-|do vo|_ la|_ nott'|e'l gior-|
w: in Ca- la- mi- to'e|voi nel-|la suua stel-|la, in cui m'af-|fis-|s'ogn' hor|_ scor-|* ta|mia bel-|
 C2 D2 E4- | E4 !fermata!A4 :| %17
w: |* no|
w: |* la.|

